X:1
T:Aba Daba Honeymoon
T:ARTHUR FIELDS & WALTER DONOVAN 
%%score 1 { ( 2 4 ) | ( 3 5 ) }
L:1/8
Q:1/4=156
M:2/2
K:Eb
V:1 treble nm="Voice"
V:2 treble nm="Piano"
V:4 treble 
V:3 bass 
V:5 bass 
V:1
"^Moderato\n" z2 | z8 | z8 | z8 | z8 | z8 | z8 | z8 | z8 |: z8 | z8 :| c4 G2 AB | c2 G2 G2 AB | %13
w: |||||||||||'Way down in the|Con- go- land Lived a|
w: |||||||||||Well, you should have|heard that band Play up-|
 c2 G2 G2 G2 | G6 z2 | B4 c3 B | d2 B4 (c^c) | d4 =c4 | BcdB c2 B2 | c4 G2 AB | c2 G2 G2 AB | %21
w: hap- py chim- pan-|zee,|She loved a|mon- key with a|long tail,|(Lord- y, how she loved him!)|Each night he would|find her there, Swing- ing|
w: on their wed- ding|day,|Each Chimp and|Mon- key had _|nut- shells,|Lord- y, how they played them;|And now it is|ev- 'ry night, High up|
 c2 G2 GG G2 | G6 Bc | d2 d2 c2 Bc | d2 d2 c2 Bc | d2 B2 G2 F2 | B6 z2 |: %27
w: in the co- coa- nut|tree, And the|mon- key gay, at the|break of day, Loved to|hear his Chim- pie|say:|
w: in the co- coa- nut|tree, It's the|same old thing, with the|same old swing, When the|Monk and Chim- pie|sing:|
[M:2/2]"^CHORUS" BB=BB cc_cc | _BB=BB c2 _B=B | c2 G2 G2 G2 | G6 z2 | BB=BB cc_cc | %32
w: "Ab- a, dab- a, dab- a, dab- a,|dab- a, dab- a, dab," Said the|Chim- pie to the|Monk,|"Bab- a, dab- a, dab- a, dab- a,|
w: |||||
 _BB=BB c2 _B=B | c2 A2 A2 A2 | A6 z2 | A2 A2 A2 A2 | ABcd- d4 | G2 c2 G2 cc | GABc- c4 | %39
w: dab- a, dab- a, dab," Said the|Mon- key to the|Chimp.|All night long they'd|chat- ter a- way, _|All day long they were|hap- py and gay, _|
w: |||||||
 F2 G4 =A2 | c2 d4 c^c | d2 B2 B2 B2 | B6 z2 | BB=BB cc_cc | _BB=BB c2 (_B=B) | c2 G2 G2 G2 | %46
w: Swing- ing and|sing- ing in their|hun- ky, ton- key|way.|"Ab- a, dab- a, dab- a, dab- a,|dab- a, dab- a, dab," means _|"Monk, I love but|
w: |||||||
 G6 z2 | GG^FF G2 =A2 | =B2 G2 =A2 B2 | c2 =B2 c2 d2 | e6 (de) | f2 c2 c2 c2 | f c3 c2 d2 | %53
w: you,"|"Bab- a, dab- a, dab," in|mon- key- talk, means|"Chimp, I love you|too," Then the|big ba- boon, one|night in June, He|
w: ||||* One _|night they were made|man and wife, And|
 e B3 B2 c2 | e B3 B2 =B2 | c2 =Bc- c2 ^c2 | ddd^c d2 B2 |1 e8- | e2 z2 z4 :|2 e8- | e6 |] %61
w: mar- ried them, and|ver- y soon They|went up- on _ their|ab- a, dab- a hon- ey-|moon.|_|moon.|_|
w: now they cry, "This|is the life," Since|they came from _ their|ab- a, dab- a hon- ey-|moon.|_|moon.|_|
V:2
!f! [Dd][Ee] | [FAf]2 [FAc]2 [FAc]2 [FAc]2 | f c3 [FAc]2 [^Fcd]2 | [Ge] [GB]3 [GB]2 [^Fc]2 | %4
 [Ge] [GB]3 [B,EB]2 [=B,E=B]2 | [CE=Ac]3 [=B,EA=B] [CEAc]2 [EA^c]2 | [F_Ad]3 [FA^c] [FAd]2 [FAB]2 | %7
 [EGe]2 (=AB =Bc^cd | e4) !>![ege']2 z2 |:!p! (c4 G2) AB | [CEc]2 [CEG]2 !>![CEG]4 :| %11
!p! [CEc]4 G2 AB | [CEc]2 [CEG]2 G2 AB | [CEc]2 [CEG]2 [=B,FG]2 [B,FG]2 | [CEG]8 | B4 c3 B | %16
 [DBd]2 !>![DFB]4 [GBc][_GB^c] | d4 =c4 | BcdB [Ec]2 [DB]2 | [CEc]4 G2 AB | [CEc]2 [CEG]2 G2 AB | %21
 [CEc]2 [CEG]2 [=B,FG]2 [B,FG]2 | G6 [_B,E_B][CEc] | %23
!<(! [DBd]2 [DBd]2!<)! !>![CE=Ac]2!>(! ([B,EB][CEc])!>)! | %24
!<(! [DBd]2 [DBd]2!<)! !>![CE=Ac]2!>(! [B,EB][CEc]!>)! | [DFBd]2 [DFB]2 [=A,EG]2 [A,EF]2 | %26
 ((([B,DB]4 !>![Bdfb]2))) z2 |:[M:2/2] !>![B,EGB]2 !>![=B,EG=B]2 !>![CEGc]2 !>![_CEG_c]2 | %28
 !>![_B,EG_B]2 !>![=B,EG=B]2 !>![CEGc]2 [_B,EG_B][=B,=B] | [CEGc]2 [EG]2 [DG]2 [CG]2 | %30
 z2{/=a} .[Bb]2{/a} .[Bb]2{/a} .[Bb]2 | !>![B,EGB]2 !>![=B,EG=B]2 !>![CEGc]2 !>![_CEG_c]2 | %32
 !>![_B,EG_B]2 !>![=B,EG=B]2 !>![CEGc]2 [_B,E_B][=B,E=B] | [CDAc]2 [FA]2 [DA]2 [CA]2 | %34
 z2{/=a} .[Bb]2{/a} .[Bb]2{/a} .[Bb]2 | [FA]2 [FA]2 [FA]2 [FA]2 | [FA][GB][Ac][Bd]- [Bd]4 | %37
 [EG]2 [Ec]2 [EG]2 [Ec]2 | [EG][FA][GB][EGc]- [EGc]4 | [CEF]2 !>![CEG]4 [CE=A]2 | %40
 [Ec]2 !>![Fd]4 [=Ec][E^c] | [DBd]2 [B,DB]2 [CEB]2 [^C=EB]2 | ((([DFB]4 !>![Bdb]2))) z2 | %43
 !>![B,EGB]2 !>![=B,EG=B]2 !>![CEGc]2 !>![_CEG_c]2 | %44
 !>![_B,EG_B]2 !>![=B,EG=B]2 !>![CEGc]2 [_B,EG_B][=B,=B] | [CEGc]2 [EG]2 [DG]2 [CG]2 | %46
 z2{/=a} [Bb]2{/a} [Bb]2{/a} [Bb]2 | [=B,FG]2 [B,^F]2 [B,=FG]2 [B,F=A]2 | %48
 [=B,F=B]2 [B,FG]2 [C_E=A]2 [B,DGB]2 | [CGc]2 [DG=B]2 [CGc]2 [FGBd]2 | [EGce]6 [Dd][Ee] | %51
 [FAf]2 [FAc]2 [FAc]2 [FAc]2 | f c3 [FAc]2 [^Fcd]2 | [Ge] [GB]3 [GB]2 [^Fc]2 | %54
 [Ge] [GB]3 [B,EB]2 [=B,E=B]2 | [CE=Ac]3 [=B,EA=B] [CEAc]2 [EA^c]2 | %56
 [F_Ad]3 [FA^c] [FAd]2 [FAB]2 |1 [EGe]2!<(! (=AB =Bc^cd!<)! | %58
 e2){/=a} !>![Bb]2{/a} !>![Bb]2{/a} !>![Bb]2 :|2 [EGe]2 (=AB =Bc^cd | e4) !>![ege']2 |] %61
V:3
 z2 | [A,,A,]2 [A,CE]2 [A,CE]2 [F,,F,]2 | [A,,A,]2 [A,CE]2 [A,CE]2 [=A,,=A,]2 | %3
 [B,,B,]2 [B,E]2 [B,E]2 [=A,,=A,]2 | [B,,B,]2 [B,E]2 [G,,G,]2 [_G,,_G,]2 | %5
 [F,,F,]2 [F,=A,]2 [F,,F,]2 [F,A,]2 | [B,,B,]2 [_A,B,D]2 [B,,,B,,]2 [A,B,D]2 | %7
 [E,,E,]2 ([=A,,=A,][B,,B,] [=B,,=B,][C,C][^C,^C][D,D] | [E,E]2) [B,,B,]2 !>![E,,E,]2 z2 |: %9
 [C,,G,,C,]2 [C,,G,,C,]2 [C,,G,,C,]2 [C,,G,,C,]2 | %10
 [C,,G,,C,]2 [C,,G,,C,]2 [C,,G,,C,]2 [C,,G,,C,]2 :| %11
 [C,,G,,C,]2 [C,,G,,C,]2 [C,,G,,C,]2 [C,,G,,C,]2 | %12
 [C,,G,,C,]2 [C,,G,,C,]2 [C,,G,,C,]2 [C,,G,,C,]2 | [C,,C,]2 [E,,E,]2 [D,,D,]2 [G,,,G,,]2 | %14
 [C,,C,]2 !>![C,,G,,]2 !>![C,,G,,]2 !>![C,,G,,]2 | [G,,G,]4 [_G,,_G,]4 | [F,,F,]4 [=E,,=E,]4 | %17
 [F,,F,]2 [F,B,D]2 [F,,F,]2 [F,=A,C]2 | B,,2 B,2 [=A,,=A,]2 [B,,B,]2 | %19
 [C,,G,,C,]2 [C,,G,,C,]2 [C,,G,,C,]2 [C,,G,,C,]2 | %20
 [C,,G,,C,]2 [C,,G,,C,]2 [C,,G,,C,]2 [C,,G,,C,]2 | [C,,C,]2 [E,,E,]2 [D,,D,]2 [G,,,G,,]2 | %22
 [C,,C,]2 [D,,D,]2 [E,,E,]2 [G,,G,][_G,,_G,] | [F,,F,]2 [F,,F,]2 !>![^F,,^F,]2 [G,,G,][_G,,_G,] | %24
 [F,,F,]2 [F,,F,]2 [^F,,^F,]2 [G,,G,][_G,,_G,] | [F,,F,]4 [F,,C,F,]2 [F,,C,F,]2 | %26
 [B,,F,]2 [F,,F,]2 !>![B,,,B,,]2 z2 |:[M:2/2] [E,,E,]2 [E,G,]2 [B,,,B,,]2 [E,G,]2 | %28
 [E,,E,]2 [E,G,]2 [B,,,B,,]2 [E,G,]2 | [E,,E,]2 [G,B,]2 [B,,,B,,]2 [G,B,]2 | %30
 [E,,E,]2 [G,B,]2 [B,,,B,,]2 [G,B,]2 | [E,,E,]2 [E,G,]2 [B,,,B,,]2 [E,G,]2 | %32
 [E,,E,]2 [E,G,]2 [B,,,B,,]2 [G,,G,][_G,,_G,] | [F,,F,]2 [A,B,D]2 [B,,,B,,]2 [F,A,]2 | %34
 [F,,F,]2 [A,B,D]2 [B,,,B,,]2 [A,B,D]2 | [F,,F,]2 [A,B,D]2 [B,,,B,,]2 [A,B,D]2 | %36
 [F,,F,]2 [A,B,D]2 [F,,F,][B,,,B,,][C,,C,][D,,D,] | [E,,E,]2 [G,B,]2 [B,,,B,,]2 [G,B,]2 | %38
 [E,,E,]2 [G,B,]2 [B,,,B,,][E,,E,][F,,F,][G,,G,] | [=A,,=A,]2 !>![G,,G,]4 [F,,F,]2 | %40
 [=A,,=A,]4 [F,,F,]4 | [B,,B,]4 [B,,,B,,]4 | [B,,B,]2 [_A,,_A,]2 [G,,G,]2 [F,,F,]2 | %43
 [E,,E,]2 [E,G,]2 [B,,,B,,]2 [E,G,]2 | [E,,E,]2 [E,G,]2 [B,,,B,,]2 [E,G,]2 | %45
 [E,,E,]2 [G,B,]2 [B,,,B,,]2 [G,B,]2 | [E,,E,]2 [G,B,]2 [B,,,B,,]2 [G,B,]2 | %47
 [D,,D,]2{/^F,} G,2 [G,,,G,,]2{/F,} G,2 | [D,,D,]2 [G,,G,]2 [_G,,_G,]2 [F,,F,]2 | %49
 [E,,E,]2 [F,,F,]2 [E,,E,]2 [D,,D,]2 | z2 (G,2 C2) z2 | [A,,A,]2 [A,CE]2 [A,CE]2 [F,,F,]2 | %52
 [A,,A,]2 [A,CE]2 [A,CE]2 [=A,,=A,]2 | [B,,B,]2 [B,E]2 [B,E]2 [=A,,=A,]2 | %54
 [B,,B,]2 [B,E]2 [G,,G,]2 [_G,,_G,]2 | [F,,F,]2 [F,=A,]2 [F,,F,]2 [F,A,]2 | %56
 [B,,B,]2 [_A,B,D]2 [B,,,B,,]2 [A,B,D]2 |1 [E,,E,]2 ([=A,,=A,][B,,B,] [=B,,=B,][C,C][^C,^C][D,D] | %58
 [E,E]2) !>![_A,,_A,]2 !>![G,,G,]2 !>![F,,F,]2 :|2 %59
 [E,,E,]2 ([=A,,=A,][B,,B,] [=B,,=B,][C,C][^C,^C][D,D] | [E,E]2) [B,,B,]2 !>![E,,E,]2 |] %61
V:4
 x2 | x8 | [FA]4 x4 | x8 | x8 | x8 | x8 | x8 | x8 |: [CE]8 | x8 :| x4 [CE]4 | x4 [CE]4 | x8 | x8 | %15
 z2 [B,E]2 z2 [CE]B, | x8 | z2 [FB]2 z2 [EF=A]2 | [DF]4 x4 | x4 [CE]4 | x4 [CE]4 | x8 | %22
 [CE]2 [=B,F]2 [CE]2 x2 | x8 | x8 | x8 | x8 |:[M:2/2] x8 | x8 | x8 | [B,G]8 | x8 | x8 | x8 | %34
 [B,A]8 | x8 | x8 | x8 | x8 | x8 | x8 | x8 | x8 | x8 | x8 | x8 | [B,G]8 | x8 | x8 | x8 | x8 | x8 | %52
 [FA]4 x4 | x8 | x8 | x8 | x8 |1 x8 | x8 :|2 x8 | x6 |] %61
V:5
 x2 | x8 | x8 | x8 | x8 | x8 | x8 | x8 | x8 |: x8 | x8 :| x8 | x8 | x8 | x8 | x8 | x8 | x8 | %18
 B,,4 x4 | x8 | x8 | x8 | x8 | x8 | x8 | x8 | x8 |:[M:2/2] x8 | x8 | x8 | x8 | x8 | x8 | x8 | x8 | %35
 x8 | x8 | x8 | x8 | x8 | x8 | x8 | x8 | x8 | x8 | x8 | x8 | x8 | x8 | x8 | [C,,C,]6 x2 | x8 | x8 | %53
 x8 | x8 | x8 | x8 |1 x8 | x8 :|2 x8 | x6 |] %61

